images/partners/ta-vfnturfs-150-20.svg

<svg width="151" height="21" viewBox="0 0 151 21" fill="none" xmlns="http://www.w3.org/2000/svg">
<path d="M150.359 16.6973H42.6211V20.0013H150.359V16.6973Z" fill="#161616"/>
<path d="M39.0354 0.234375V8.42272L41.3781 16.8683H41.8411L44.1815 8.42272V0.234375H47.5126V8.87454L44.1537 19.9962H39.0632L35.7344 8.87454V0.234375H39.0354Z" fill="#161616"/>
<path d="M60.7992 16.9301V19.9608H51.0117V0.138672H60.5168V3.16933H54.123V8.63286H58.9056V11.6635H54.123V16.9301H60.7992Z" fill="#161616"/>
<path d="M77.5138 0.138672V19.9608H74.4025L66.6823 6.2278V19.9608H63.5664V0.138672H66.6823L74.4071 13.8716V0.138672H77.5138Z" fill="#161616"/>
<path d="M91.7621 3.16933H87.2642V19.9608H84.153V3.16933H79.625V0.138672H91.7621V3.16933Z" fill="#161616"/>
<path d="M103.511 0.138672H106.622V13.8994C106.622 18.6285 104.36 20.0998 100.654 20.0998C96.948 20.0998 94.6562 18.6308 94.6562 13.8994V0.138672H97.7675V13.8716C97.7675 16.564 98.955 17.0714 100.654 17.0714C102.353 17.0714 103.511 16.564 103.511 13.8716V0.138672Z" fill="#161616"/>
<path d="M119.277 19.9608L115.911 12.4861C115.599 12.4861 115.316 12.5139 115.006 12.5139H112.856V19.9608H109.742V0.138672H115.006C118.231 0.138672 121.72 1.13036 121.738 6.31121C121.71 9.39748 120.493 11.0124 118.824 11.8049L122.588 19.9608H119.277ZM115.006 9.48321C117.185 9.48321 118.599 8.85993 118.599 6.48267V6.16987C118.599 3.76249 117.185 3.16933 115.006 3.16933H112.856V9.48321H115.006Z" fill="#161616"/>
<path d="M134.591 16.9301V19.9608H124.797V0.138672H134.304V3.16933H127.915V8.63286H132.695V11.6635H127.915V16.9301H134.591Z" fill="#161616"/>
<path d="M137.295 13.536L140.409 12.9753V13.6704C140.409 15.7094 141.173 17.0672 144.087 17.0672C146.265 17.0672 147.254 16.1056 147.254 14.9818C147.254 13.1977 145.671 12.6324 142.587 10.8483C138.879 8.57297 137.862 7.4469 137.862 4.78464C137.862 1.24656 140.918 0 143.775 0C146.631 0 149.793 1.32997 149.793 5.46585V6.02425L146.682 6.59192C146.682 4.58074 146.115 3.02371 143.569 3.02371C141.844 3.02371 140.967 3.67479 140.967 4.72208C140.967 6.13778 142.835 6.84679 146.483 9.0271C149.171 10.7811 150.361 12.1412 150.361 14.917C150.361 19.0876 146.851 20.0978 143.994 20.0978C141.138 20.0978 137.281 18.9092 137.281 14.632L137.295 13.536Z" fill="#161616"/>
<path d="M0 3.50719V0.203125H11.6533V3.50719H7.53273V19.9719H4.09045V3.50719H0Z" fill="#161616"/>
<path d="M17.2099 0.203125H22.5713L25.7867 11.3248V19.9719H22.4578V14.0983H17.3233V19.9719H13.9922V11.3318L17.2099 0.203125ZM22.1476 10.7942L20.173 3.50719H19.6082L17.6335 10.7942H22.1476Z" fill="#161616"/>
</svg>

<svg width="151" height="21" fill="none" xmlns="http://www.w3.org/2000/svg"><path d="M150.359 16.697H42.621v3.304H150.36v-3.304z" fill="#161616"/><path d="M39.035.234v8.189l2.343 8.445h.463l2.34-8.445V.234h3.332v8.64l-3.36 11.122h-5.09L35.734 8.875V.235h3.301zM60.8 16.93v3.03h-9.788V.14h9.505v3.03h-6.394v5.464h4.783v3.03h-4.783v5.267h6.676zM77.514.139V19.96h-3.111l-7.72-13.733V19.96h-3.117V.139h3.116l7.725 13.733V.139h3.107zM91.762 3.17h-4.498v16.79h-3.111V3.17h-4.528V.138h12.137v3.03zM103.511.139h3.111v13.76c0 4.73-2.262 6.2-5.968 6.2s-5.998-1.468-5.998-6.2V.14h3.111v13.733c0 2.692 1.188 3.2 2.887 3.2s2.857-.508 2.857-3.2V.139zm15.766 19.821l-3.366-7.474c-.312 0-.595.028-.905.028h-2.15v7.447h-3.114V.139h5.264c3.225 0 6.714.991 6.732 6.172-.028 3.086-1.245 4.701-2.914 5.494l3.764 8.156h-3.311zm-4.271-10.477c2.179 0 3.593-.623 3.593-3V6.17c0-2.408-1.414-3-3.593-3h-2.15v6.313h2.15zm19.585 7.447v3.03h-9.794V.14h9.507v3.03h-6.389v5.464h4.78v3.03h-4.78v5.267h6.676zm2.704-3.394l3.114-.56v.694c0 2.04.764 3.397 3.678 3.397 2.178 0 3.167-.961 3.167-2.085 0-1.784-1.583-2.35-4.667-4.134-3.708-2.275-4.725-3.401-4.725-6.063 0-3.538 3.056-4.785 5.913-4.785 2.856 0 6.018 1.33 6.018 5.466v.558l-3.111.568c0-2.011-.567-3.568-3.113-3.568-1.725 0-2.602.65-2.602 1.698 0 1.416 1.868 2.125 5.516 4.305 2.688 1.754 3.878 3.114 3.878 5.89 0 4.17-3.51 5.18-6.367 5.18-2.856 0-6.713-1.188-6.713-5.465l.014-1.096zM0 3.507V.203h11.653v3.304h-4.12v16.465H4.09V3.507H0zM17.21.203h5.361l3.216 11.122v8.647h-3.33v-5.874h-5.134v5.874h-3.33v-8.64L17.21.203zm4.938 10.591l-1.975-7.287h-.565l-1.974 7.287h4.514z" fill="#161616"/></svg>
